X:1
T:Countess of Wemyss' Reel, The
M:C|
L:1/8
R:Reel
N:The volume was dedicated to the Highland Society of Scotland
B:Duncan McKercher – A Collection of Original Stathspeys and Reels (Edinburgh, c. 1830, p. 11)
Z:AK/Fiddler’s Companion
K:A
f|{f}e2 T(cA) eAcA|BF F/F/F (GE)Ef|{f}e2 (cA) eATcA|BFGE A2 (Af)|
{f}e2 T(cA) eAcA|BF F/F/F (GE)Ef|{f}e2 ce Aece|BFGE A2A||
F|~E2 (CE) FDEC|~E2 (CE) B,CDF|~E2 (CE) FDEC|DFEG A2 AF|
ECEC FDEC|DFEC B,CDF|ECEA FDFd|Tce EG [C2A2][CA]||

